X:1
T: The Bruce
C:
R:Strathspey
Q: 128
K:G
M:4/4
L:1/16
|:((3D2E2F2) |G6 F2 G3A B2c2|d4 G4 g4 f3e|d4 G4 g4 f2e2|de3 d2B2 A4 B2A2|
G6 F2 G3A B2c2|d4 d4 e4 g2e2|d6 B2 d4 B4|1G12:|2G8 d4 d4|
|:e6 d2 e2f2 g2a2|f4 d4 d4 f2f2|g6 f2 g2a2 b2c'2|a4 d'4 d'4 d'3c'|
b4 d'3b a4 d'3c'|b2a2 g2e2 d4 d4|e2 g6 g4 a4|1g8 d4 d4:|2g12||
